X: 10
T: Cup Of Tea, The
Z: TJ
S: https://thesession.org/tunes/20#setting45784
R: reel
M: 4/4
L: 1/8
K: Edor
|:BAGF GEEF|GEBE GEEA|BAGF GEEG|FDAD FDDA|
BAGF GEEF|GEBE GEEA|BAGF GABc|dBAG FDDA:|
|:d2eg fdec|d2eg fBBc|d2eg fdec|dBAG FDDA|
d2eg fdec|d2eg f2fg|afge fdec|dBAG FDDA:|
|:FAdA FAdA|FAdF GEE2|FAdA FABc|dBAG FDDA|
FAdA FAdA|FAde fee2|fedc dBAG|ABAG FDDA:|

